!!!COM: Johanna Kinkel
!!!CNT: Deutsch
!!!TXO: Deutsch
!!!OTL: Lust und Qual
!!!LYR: Goethe
!!!OPR: Sechs Lieder
!!!OPS: Op. 15
!!!ONM: No. 5
!!!ENC: Ben Fuhrman
!!!YOR: Johanna Kinkel: Lieder, volume 1 Poetry by Geibel and Goethe
!!!YOR: Bryn Mawr, Fildegard Publishing CO, 2000
!!!ODT: 1841
!!NB: Only vocal melody encoded.
!!NB: First instance of melodic material only encoded.
!!created: 2/24/10 1:17PM
!!proofed and posted: 2/24/10 1:17PM
**kern	**silbe
*clef G2	*
*k[b-e-a-]	*
*M4/4	*
*MM[Andante con moto]	*
=5	=5
2r	.
{8g	{Kna-
8f	|
8e-	-be
8d	|
=6	=6
4.c	sass
8c	ich,
(dq	Fi-
8c)	|
8Bn	|
8c	-scher-
8e-	|
=7	=7
4d	-kna-
8g	-be
8r	.
8c	auf
8d	|
8e-	dem
8f	|
=8	=8
4g	schwar-
4b-	-zen
8an	Fels
16b-	|
16cc	|
8b-	|
8a-	am
=9	=9
2g}	Meer,}
{8g	{und
8f	|
8e-	be-
8d	|
=10	=10
4.c	-rei-
8d	-tend
(fq	fal-
8e-)	|
8d	|
8e-	-sche
8f	|
=11	=11
4g	Ga-
8b-	-be,
8r	.
(12f	sang
12b-	|
12cc)	|
(12b-	|
12f)	|
12a-	ich
=12	=12
4g	lau-
8ee-	-schend
8r	.
(12f	rings
12b-	|
12cc	|
12b-	|
12f)	|
12a-	um-
=13	=13
1g}	-her.}
=14	=14
{2g	{An-
2bn	-gel
=15	=15
(4.d	schweb-
8en)	|
2d	-te
=16	=16
2d	loc-
2an	-kend
=17	=17
(4.d	nie-
8en)	|
4d}	-der}
4r	.
=18	=18
4r	.
{8g	{Gleich
8g	ein
8f#	Flech-
8g	-lein
8an	streift
8f#	und
=19	=19
4dd	schnappt!
!! Unsure on how to interpret the following segment. The phrase is clearly concluded in measure 20, and the additional verses have a syllabic declamation present, but verse one only has dashes in place. -Fuhrman
8g	|
8g	|
8f#	|
8g	|
8an	|
8f#	|
=20	=20
4g}	|}
4r	.
{8g	{Scha-
8f#	|
8en	-den-
8d	|
=21	=21
4.c	-fro-
8d	-he
(fq	Schel-
8en)	|
8d	|
8f	-men-
8g	|
=22	=22
4a	-lie-
8een	-der,
8r	.
4en	und
4cc	das
=23	=23
4.bn	Fisch
8an	-lein
12a	war
12g	|
12f	|
12en	er-
12f	|
12d	|
=24	=24
(4an	-tappt;
8g)}	|}
8r	.
{8g	{Scha-
8f	|
8en	-den-
8d	|
=25	=25
4.c#	-fro-
8en	-he.
8an	Schel-
8b-	|
8en	-men-
8an	|
=26	=26
4g	-lie-
8f	-der,
8r	.
4an	und
4dd	das
=27	=27
8cc	Fisch-
8g	|
8en	-lein
8f	|
(4gS	war
8an)	|
8bn	er-
=28	=28
4cc}	-tappt.}
4r	.
2r	.
==	==
*-	*-
